svg/UnitedNationsOCHA-Humanitarian/telecommunications_walkie_talkie_icon_box.svg

<svg xmlns="http://www.w3.org/2000/svg" viewBox="0 0 32 32" enable-background="new 0 0 32 32"><path fill="#407cca" d="m12.278 16.953h7.443v.631h-7.443v-.631m19.722-10.553v19.2c0 3.521-2.88 6.4-6.4 6.4h-19.2c-3.52 0-6.4-2.88-6.4-6.4v-19.2c0-3.52 2.88-6.4 6.4-6.4h19.2c3.52 0 6.4 2.88 6.4 6.4m-11.416 6.247c0-.544-.353-.997-.837-1.175v-5.825c.19-.175.318-.419.318-.7 0-.522-.425-.947-.95-.947-.524 0-.949.425-.949.947 0 .281.128.525.318.7v5.741h-1.854v-2.094c0-.347-.284-.628-.631-.628-.35 0-.631.281-.631.628v2.094h-1.413v-1.156c0-.522-.425-.944-.947-.944s-.947.422-.947.944v1.337c-.378.219-.647.612-.647 1.078v5.093c0 .694.194 1.572.431 1.953.238.382.432 1.26.432 1.953v5.091c0 .694.568 1.263 1.262 1.263h4.918c.694 0 1.263-.568 1.263-1.263v-5.091c0-.693.194-1.571.432-1.953.237-.381.431-1.259.431-1.953v-5.093m-8.305.959h7.443v-.631h-7.443v.631m0 2.653h7.443v-.631h-7.443v.631m0-1.328h7.443v-.631h-7.443v.631"/></svg>

<?xml version="1.0" encoding="utf-8"?>
<!-- Generator: Adobe Illustrator 16.0.3, SVG Export Plug-In . SVG Version: 6.00 Build 0)  -->
<!DOCTYPE svg PUBLIC "-//W3C//DTD SVG 1.1//EN" "http://www.w3.org/Graphics/SVG/1.1/DTD/svg11.dtd">
<svg version="1.1" id="Layer_1" xmlns="http://www.w3.org/2000/svg" xmlns:xlink="http://www.w3.org/1999/xlink" x="0px" y="0px"
	 width="32px" height="32px" viewBox="0 0 32 32" enable-background="new 0 0 32 32" xml:space="preserve">
<path fill="#407CCA" d="M12.278,16.953h7.443v0.631h-7.443V16.953z M32,6.4v19.2c0,3.521-2.88,6.4-6.4,6.4H6.4
	C2.88,32,0,29.12,0,25.6V6.4C0,2.88,2.88,0,6.4,0h19.2C29.12,0,32,2.88,32,6.4z M20.584,12.647c0-0.544-0.353-0.997-0.837-1.175
	V5.647c0.19-0.175,0.318-0.419,0.318-0.7c0-0.522-0.425-0.947-0.95-0.947c-0.524,0-0.949,0.425-0.949,0.947
	c0,0.281,0.128,0.525,0.318,0.7v5.741h-1.854V9.294c0-0.347-0.284-0.628-0.631-0.628c-0.35,0-0.631,0.281-0.631,0.628v2.094h-1.413
	v-1.156c0-0.522-0.425-0.944-0.947-0.944s-0.947,0.422-0.947,0.944v1.337c-0.378,0.219-0.647,0.612-0.647,1.078v5.093
	c0,0.694,0.194,1.572,0.431,1.953c0.238,0.382,0.432,1.26,0.432,1.953v5.091c0,0.694,0.568,1.263,1.262,1.263h4.918
	c0.694,0,1.263-0.568,1.263-1.263v-5.091c0-0.693,0.194-1.571,0.432-1.953c0.237-0.381,0.431-1.259,0.431-1.953V12.647z
	 M12.278,13.606h7.443v-0.631h-7.443V13.606z M12.278,16.259h7.443v-0.631h-7.443V16.259z M12.278,14.931h7.443V14.3h-7.443V14.931z
	"/>
</svg>
